build/svg/cmd/sc_diagramwall.svg

<?xml version="1.0" encoding="UTF-8" standalone="no"?>
<svg
   xmlns:dc="http://purl.org/dc/elements/1.1/"
   xmlns:cc="http://creativecommons.org/ns#"
   xmlns:rdf="http://www.w3.org/1999/02/22-rdf-syntax-ns#"
   xmlns:svg="http://www.w3.org/2000/svg"
   xmlns="http://www.w3.org/2000/svg"
   xmlns:sodipodi="http://sodipodi.sourceforge.net/DTD/sodipodi-0.dtd"
   xmlns:inkscape="http://www.inkscape.org/namespaces/inkscape"
   viewBox="0 0 16 16"
   version="1.1"
   id="svg4"
   sodipodi:docname="sc_diagramwall.svg"
   inkscape:export-filename="/home/jupiter007/Libreoffice yaru theme fullcolor/build/cmd/sc_diagramwall.png"
   inkscape:export-xdpi="96"
   inkscape:export-ydpi="96"
   inkscape:version="0.92.5 (2060ec1f9f, 2020-04-08)"><metadata
   id="metadata10">
  <rdf:RDF>
    <cc:Work
       rdf:about="">
      <dc:format>image/svg+xml</dc:format>
      <dc:type
         rdf:resource="http://purl.org/dc/dcmitype/StillImage" />
    </cc:Work>
  </rdf:RDF>
</metadata>
<defs
   id="defs8" />
<sodipodi:namedview
   pagecolor="#ffffff"
   bordercolor="#666666"
   borderopacity="1"
   objecttolerance="10"
   gridtolerance="10"
   guidetolerance="10"
   inkscape:pageopacity="0"
   inkscape:pageshadow="2"
   inkscape:window-width="1920"
   inkscape:window-height="1011"
   id="namedview6"
   showgrid="true"
   inkscape:zoom="29.5"
   inkscape:cx="-3.8810429"
   inkscape:cy="8.0907893"
   inkscape:window-x="1920"
   inkscape:window-y="32"
   inkscape:window-maximized="1"
   inkscape:current-layer="svg4">
  <inkscape:grid
     type="xygrid"
     id="grid855" />
</sodipodi:namedview>

/&gt;<path
   sodipodi:nodetypes="cccscsccccccccscscccccc"
   inkscape:connector-curvature="0"
   id="path4237-1"
   d="M 4.9941161,1.9997078 C 3.735916,2.0142078 2.815225,1.9691038 2.0624751,2.3844734 1.686105,2.5921334 1.389244,2.9438603 1.224584,3.3825203 1.059914,3.8211903 0.99997498,4.3421078 0.99997498,4.9997078 v 1.488281 4.5123032 c 0,0.65761 0.0599,1.178577 0.22460892,1.617188 0.1646801,0.438611 0.4615311,0.788524 0.8378912,0.996093 0.75272,0.41513 1.673541,0.371649 2.931641,0.386719 h 0.002 6.0058589 0.0039 c 1.25819,-0.0145 2.178891,0.0306 2.931641,-0.384766 0.37637,-0.20766 0.673221,-0.559386 0.837891,-0.998046 0.164539,-0.438671 0.224618,-0.959578 0.224618,-1.617188 V 6.4665048 4.9997078 c 0,-0.6576 -0.0599,-1.1785775 -0.224609,-1.6171875 -0.16468,-0.4386 -0.461531,-0.7885338 -0.837891,-0.9960937 -0.75277,-0.41513 -1.673601,-0.3716388 -2.931691,-0.3867188 h -0.002 -6.005859 z"
   style="font-style:normal;font-variant:normal;font-weight:normal;font-stretch:normal;font-size:15px;line-height:125%;font-family:Ubuntu;-inkscape-font-specification:Ubuntu;text-align:center;letter-spacing:0px;word-spacing:0px;writing-mode:lr-tb;text-anchor:middle;display:inline;opacity:0.6;fill:#000000;fill-opacity:1;stroke:none;stroke-width:0.99980211" />
<path
   inkscape:connector-curvature="0"
   style="opacity:1;vector-effect:none;fill:#2daaaa;fill-opacity:1;stroke:none;stroke-width:2;stroke-linecap:round;stroke-linejoin:round;stroke-miterlimit:4;stroke-dasharray:none;stroke-dashoffset:0;stroke-opacity:1"
   d="m 2.1015626,12 c 0.085726,0.356849 0.2704244,0.693391 0.642578,0.806641 0.41173,0.146528 0.8330952,0.156064 1.2558595,0.152343 V 12 Z"
   id="rect3830-5" />
<path
   inkscape:connector-curvature="0"
   style="opacity:1;vector-effect:none;fill:#46a926;fill-opacity:1;stroke:none;stroke-width:2;stroke-linecap:round;stroke-linejoin:round;stroke-miterlimit:4;stroke-dasharray:none;stroke-dashoffset:0;stroke-opacity:1"
   d="m 4,12 v 0.958984 c 0.2266415,-0.002 0.454153,-0.0091 0.6816405,0.002 1.1054256,0.0053 2.2116109,0.0082 3.3183594,0.0098 V 12 Z"
   id="rect3830-0-9" />
<path
   inkscape:connector-curvature="0"
   style="opacity:1;vector-effect:none;fill:#fdc92b;fill-opacity:1;stroke:none;stroke-width:2;stroke-linecap:round;stroke-linejoin:round;stroke-miterlimit:4;stroke-dasharray:none;stroke-dashoffset:0;stroke-opacity:1"
   d="m 8,12 v 0.970703 c 0.319191,4.44e-4 0.6378588,0.0019 0.9570312,0.002 1.6691768,2.96e-4 1.4587568,-0.0047 3.0429688,-0.01762 v -0.955078 z"
   id="rect3830-2-2" />
<path
   inkscape:connector-curvature="0"
   style="opacity:1;vector-effect:none;fill:#f34f17;fill-opacity:1;stroke:none;stroke-width:2;stroke-linecap:round;stroke-linejoin:round;stroke-miterlimit:4;stroke-dasharray:none;stroke-dashoffset:0;stroke-opacity:1"
   d="m 12,12 v 0.955078 c 0.03355,-2.73e-4 0.02922,2.8e-4 0.06445,0 0.511911,-0.01201 1.182939,0.01887 1.583985,-0.40625 C 13.778539,12.382057 13.847079,12.194464 13.892578,12 Z"
   id="rect3830-3-2" />
<path
   inkscape:connector-curvature="0"
   style="opacity:1;vector-effect:none;fill:#31c6b7;fill-opacity:1;stroke:none;stroke-width:2;stroke-linecap:round;stroke-linejoin:round;stroke-miterlimit:4;stroke-dasharray:none;stroke-dashoffset:0;stroke-opacity:1"
   d="m 2.0175781,7.9999998 c -0.00229,1.1306628 0.00174,2.2265902 0.029297,3.6445312 0.00977,0.115482 0.026112,0.236519 0.054687,0.355469 H 3.9999997 V 7.9999998 Z"
   id="rect3830-9" />
<rect
   style="opacity:1;vector-effect:none;fill:#76c22b;fill-opacity:1;stroke:none;stroke-width:2;stroke-linecap:round;stroke-linejoin:round;stroke-miterlimit:4;stroke-dasharray:none;stroke-dashoffset:0;stroke-opacity:1"
   id="rect3830-0-7"
   width="4"
   height="4"
   x="3.9999995"
   y="8" />
<rect
   style="opacity:1;vector-effect:none;fill:#ffda64;fill-opacity:1;stroke:none;stroke-width:2;stroke-linecap:round;stroke-linejoin:round;stroke-miterlimit:4;stroke-dasharray:none;stroke-dashoffset:0;stroke-opacity:1"
   id="rect3830-2-3"
   width="4"
   height="4"
   x="7.9999986"
   y="8" />
<path
   inkscape:connector-curvature="0"
   style="opacity:1;vector-effect:none;fill:#fb7c38;fill-opacity:1;stroke:none;stroke-width:2;stroke-linecap:round;stroke-linejoin:round;stroke-miterlimit:4;stroke-dasharray:none;stroke-dashoffset:0;stroke-opacity:1"
   d="M 12,7.9999998 V 12 h 1.892578 c 0.101766,-0.434952 0.05543,-0.914176 0.08008,-1.353516 0.0049,-1.017217 0.0085,-1.8268546 0.0098,-2.6464842 z"
   id="rect3830-3-6" />
<path
   inkscape:connector-curvature="0"
   style="opacity:1;vector-effect:none;fill:#5bdbc1;fill-opacity:1;stroke:none;stroke-width:2;stroke-linecap:round;stroke-linejoin:round;stroke-miterlimit:4;stroke-dasharray:none;stroke-dashoffset:0;stroke-opacity:1"
   d="m 2.1191406,3.9999998 c -0.132002,0.5735222 -0.060685,1.1845295 -0.09375,1.7578125 -0.00297,0.8743548 -0.0064,1.5473256 -0.00781,2.2421875 h 1.982422 v -4 z"
   id="rect3830-29" />
<rect
   style="opacity:1;vector-effect:none;fill:#a6d74f;fill-opacity:1;stroke:none;stroke-width:2;stroke-linecap:round;stroke-linejoin:round;stroke-miterlimit:4;stroke-dasharray:none;stroke-dashoffset:0;stroke-opacity:1"
   id="rect3830-0-3"
   width="4"
   height="4"
   x="3.9999995"
   y="4" />
<rect
   style="opacity:1;vector-effect:none;fill:#fee581;fill-opacity:1;stroke:none;stroke-width:2;stroke-linecap:round;stroke-linejoin:round;stroke-miterlimit:4;stroke-dasharray:none;stroke-dashoffset:0;stroke-opacity:1"
   id="rect3830-2-1"
   width="4"
   height="4"
   x="7.9999986"
   y="4" />
<path
   inkscape:connector-curvature="0"
   style="opacity:1;vector-effect:none;fill:#fda463;fill-opacity:1;stroke:none;stroke-width:2;stroke-linecap:round;stroke-linejoin:round;stroke-miterlimit:4;stroke-dasharray:none;stroke-dashoffset:0;stroke-opacity:1"
   d="m 12,3.9999998 v 4 h 1.982422 c 0.0018,-1.149901 -0.0042,-2.2830276 -0.0332,-3.7109375 -0.01161,-0.0947 -0.02651,-0.1922505 -0.04883,-0.2890625 z"
   id="rect3830-3-9" />
<path
   inkscape:connector-curvature="0"
   style="opacity:1;vector-effect:none;fill:#81e9c0;fill-opacity:1;stroke:none;stroke-width:2;stroke-linecap:round;stroke-linejoin:round;stroke-miterlimit:4;stroke-dasharray:none;stroke-dashoffset:0;stroke-opacity:1"
   d="m 4,3.0566404 c -0.2244427,0.00457 -0.4495294,0.00245 -0.673828,0.00977 -0.461229,0.042668 -1.0170981,0.205437 -1.1562501,0.7089844 -0.025292,0.073373 -0.033546,0.1497196 -0.050781,0.224605 H 4 Z"
   id="rect3830-78" />
<path
   inkscape:connector-curvature="0"
   style="opacity:1;vector-effect:none;fill:#cbe667;fill-opacity:1;stroke:none;stroke-width:2;stroke-linecap:round;stroke-linejoin:round;stroke-miterlimit:4;stroke-dasharray:none;stroke-dashoffset:0;stroke-opacity:1"
   d="M 7.986328,3.0273436 C 6.6550053,3.0365736 5.3265032,3.0296036 4,3.0566406 V 3.9999998 H 8 V 3.0273436 c -0.00728,4.5e-6 -0.00632,-4.6e-6 -0.013672,0 z"
   id="rect3830-0-4" />
<path
   inkscape:connector-curvature="0"
   style="opacity:1;vector-effect:none;fill:#fff4c9;fill-opacity:1;stroke:none;stroke-width:2;stroke-linecap:round;stroke-linejoin:round;stroke-miterlimit:4;stroke-dasharray:none;stroke-dashoffset:0;stroke-opacity:1"
   d="m 8,3.0273436 v 0.9726562 h 4 V 3.0429686 c -0.252174,0.00194 -0.505736,0.0092 -0.75,-0.00391 C 9.5029425,3.0273086 9.730474,3.0262686 8,3.0273436 Z"
   id="rect3830-2-5" />
<path
   inkscape:connector-curvature="0"
   style="opacity:1;vector-effect:none;fill:#fec589;fill-opacity:1;stroke:none;stroke-width:2;stroke-linecap:round;stroke-linejoin:round;stroke-miterlimit:4;stroke-dasharray:none;stroke-dashoffset:0;stroke-opacity:1"
   d="m 12,3.0429686 v 0.9570312 h 1.900391 C 13.82796,3.6858051 13.684715,3.382906 13.375,3.2441404 12.940082,3.0527096 12.470201,3.0393587 12,3.0429686 Z"
   id="rect3830-3-0" />
<path
   d="m 2.9999993,11 h 1 3 6.0000017 V 10 H 12 V 7 H 8.9999997 v 3 H 6.9999993 V 5 h -3 v 5 h -1 z"
   id="path2"
   inkscape:connector-curvature="0"
   style="fill:#232629;fill-opacity:1"
   sodipodi:nodetypes="ccccccccccccccc" />
</svg>

<svg xmlns="http://www.w3.org/2000/svg" viewBox="0 0 16 16">/&gt;<path d="M4.994 2c-1.258.014-2.179-.03-2.932.384a1.88 1.88 0 00-.837.999C1.06 3.82 1 4.343 1 5v6c0 .658.06 1.179.225 1.617.164.44.461.789.837.997.753.415 1.674.371 2.932.386h6.012c1.258-.014 2.179.03 2.932-.384a1.88 1.88 0 00.837-.999c.165-.438.225-.96.225-1.617V5c0-.658-.06-1.179-.225-1.617a1.875 1.875 0 00-.837-.997c-.753-.415-1.674-.371-2.932-.386H4.998z" style="line-height:125%;-inkscape-font-specification:Ubuntu;text-align:center" font-weight="400" font-size="15" font-family="Ubuntu" letter-spacing="0" word-spacing="0" text-anchor="middle" opacity=".6"/><path d="M2.102 12c.085.357.27.693.642.807.412.146.833.156 1.256.152V12z" fill="#2daaaa"/><path d="M4 12v.959c.227-.002.454-.01.682.002 1.105.005 2.211.008 3.318.01V12z" fill="#46a926"/><path d="M8 12v.97l.957.003c1.67 0 1.459-.005 3.043-.018V12z" fill="#fdc92b"/><path d="M12 12v.955h.064c.512-.012 1.183.019 1.584-.406.13-.167.2-.355.245-.549z" fill="#f34f17"/><path d="M2.018 8c-.003 1.13.001 2.227.029 3.645.01.115.026.236.055.355H4V8z" fill="#31c6b7"/><path fill="#76c22b" d="M4 8h4v4H4z"/><path fill="#ffda64" d="M8 8h4v4H8z"/><path d="M12 8v4h1.893c.101-.435.055-.914.08-1.354.005-1.017.008-1.826.01-2.646z" fill="#fb7c38"/><path d="M2.12 4c-.133.574-.062 1.185-.095 1.758-.003.874-.006 1.547-.007 2.242H4V4z" fill="#5bdbc1"/><path fill="#a6d74f" d="M4 4h4v4H4z"/><path fill="#fee581" d="M8 4h4v4H8z"/><path d="M12 4v4h1.982c.002-1.15-.004-2.283-.033-3.71A2.808 2.808 0 0013.9 4z" fill="#fda463"/><path d="M4 3.057c-.224.004-.45.002-.674.01-.461.042-1.017.205-1.156.708-.025.074-.034.15-.05.225H4z" fill="#81e9c0"/><path d="M7.986 3.027c-1.331.01-2.66.003-3.986.03V4h4v-.973h-.014z" fill="#cbe667"/><path d="M8 3.027V4h4v-.957c-.252.002-.506.01-.75-.004-1.747-.012-1.52-.013-3.25-.012z" fill="#fff4c9"/><path d="M12 3.043V4h1.9c-.072-.314-.215-.617-.525-.756-.435-.191-.905-.205-1.375-.201z" fill="#fec589"/><path d="M3 11h10v-1h-1V7H9v3H7V5H4v5H3z" fill="#232629"/></svg>
